images/svg/instagram.svg

<svg width="40" height="40" viewBox="0 0 40 40" fill="none" xmlns="http://www.w3.org/2000/svg">
<path d="M40 20C40 25.5228 37.7614 30.5228 34.1421 34.1421C30.5228 37.7614 25.5228 40 20 40C14.4772 40 9.47715 37.7614 5.85786 34.1421C2.23858 30.5228 0 25.5228 0 20C0 14.4772 2.23858 9.47715 5.85786 5.85786C9.47715 2.23858 14.4772 0 20 0C25.5228 0 30.5228 2.23858 34.1421 5.85786C37.7614 9.47715 40 14.4772 40 20Z" fill="#4D5AE5"/>
<g clip-path="url(#clip0_483802_228)">
<path d="M27.9843 16.7039C27.9468 15.8538 27.8093 15.2693 27.6124 14.7629C27.4092 14.2253 27.0967 13.744 26.6872 13.3439C26.2871 12.9376 25.8026 12.6218 25.2713 12.4218C24.7619 12.2249 24.1805 12.0874 23.3303 12.0499C22.4738 12.0093 22.2019 11.9999 20.0296 11.9999C17.8573 11.9999 17.5854 12.0093 16.7321 12.0468C15.882 12.0842 15.2975 12.2218 14.7912 12.4187C14.2535 12.6218 13.7722 12.9344 13.3721 13.3439C12.9658 13.744 12.6501 14.2285 12.45 14.7598C12.2531 15.2693 12.1156 15.8506 12.0781 16.7007C12.0375 17.5572 12.0281 17.8291 12.0281 20.0014C12.0281 22.1737 12.0375 22.4456 12.075 23.299C12.1124 24.1491 12.25 24.7336 12.447 25.24C12.6501 25.7776 12.9658 26.2589 13.3721 26.659C13.7722 27.0653 14.2567 27.3811 14.788 27.581C15.2975 27.778 15.8788 27.9155 16.7291 27.9529C17.5823 27.9906 17.8543 27.9998 20.0266 27.9998C22.1989 27.9998 22.4708 27.9906 23.3241 27.9529C24.1742 27.9155 24.7587 27.778 25.265 27.581C26.3403 27.1653 27.1904 26.3152 27.6062 25.24C27.803 24.7305 27.9406 24.1491 27.9781 23.299C28.0156 22.4456 28.025 22.1737 28.025 20.0014C28.025 17.8291 28.0218 17.5572 27.9843 16.7039ZM26.5435 23.2364C26.509 24.0179 26.3778 24.4398 26.2684 24.7211C25.9995 25.4181 25.4463 25.9714 24.7493 26.2402C24.468 26.3496 24.043 26.4809 23.2646 26.5152C22.4207 26.5528 22.1676 26.562 20.0328 26.562C17.898 26.562 17.6417 26.5528 16.8009 26.5152C16.0195 26.4809 15.5975 26.3496 15.3162 26.2402C14.9693 26.112 14.6536 25.9088 14.3973 25.6432C14.1316 25.3837 13.9285 25.0712 13.8003 24.7243C13.6909 24.443 13.5596 24.0179 13.5253 23.2396C13.4877 22.3957 13.4784 22.1425 13.4784 20.0077C13.4784 17.8729 13.4877 17.6166 13.5253 16.7758C13.5596 15.9944 13.6909 15.5725 13.8003 15.2912C13.9285 14.9442 14.1316 14.6286 14.4005 14.3722C14.6598 14.1065 14.9724 13.9033 15.3194 13.7752C15.6007 13.6659 16.0258 13.5346 16.804 13.5002C17.6479 13.4627 17.9012 13.4533 20.0359 13.4533C22.1738 13.4533 22.4269 13.4627 23.2678 13.5002C24.0492 13.5346 24.4712 13.6659 24.7525 13.7752C25.0993 13.9033 25.4151 14.1065 25.6714 14.3722C25.937 14.6316 26.1402 14.9442 26.2684 15.2912C26.3778 15.5725 26.509 15.9975 26.5435 16.7758C26.581 17.6198 26.5904 17.8729 26.5904 20.0077C26.5904 22.1425 26.581 22.3925 26.5435 23.2364Z" fill="#F4F4FD"/>
<path d="M20.0297 15.8912C17.7606 15.8912 15.9195 17.7322 15.9195 20.0014C15.9195 22.2707 17.7606 24.1116 20.0297 24.1116C22.2989 24.1116 24.1398 22.2707 24.1398 20.0014C24.1398 17.7322 22.2989 15.8912 20.0297 15.8912ZM20.0297 22.6676C18.5576 22.6676 17.3635 21.4736 17.3635 20.0014C17.3635 18.5292 18.5576 17.3352 20.0297 17.3352C21.5019 17.3352 22.6958 18.5292 22.6958 20.0014C22.6958 21.4736 21.5019 22.6676 20.0297 22.6676Z" fill="#F4F4FD"/>
<path d="M25.262 15.7287C25.262 16.2586 24.8324 16.6882 24.3024 16.6882C23.7725 16.6882 23.3428 16.2586 23.3428 15.7287C23.3428 15.1987 23.7725 14.7692 24.3024 14.7692C24.8324 14.7692 25.262 15.1987 25.262 15.7287Z" fill="#F4F4FD"/>
</g>
<defs>
<clipPath id="clip0_483802_228">
<rect width="16" height="16" fill="white" transform="translate(12 11.9999)"/>
</clipPath>
</defs>
</svg>

<svg xmlns="http://www.w3.org/2000/svg" width="40" height="40" fill="none"><path fill="#4D5AE5" d="M40 20a19.937 19.937 0 0 1-5.858 14.142A19.937 19.937 0 0 1 20 40a19.937 19.937 0 0 1-14.142-5.858A19.937 19.937 0 0 1 0 20 19.938 19.938 0 0 1 5.858 5.858 19.938 19.938 0 0 1 20 0a19.937 19.937 0 0 1 14.142 5.858A19.937 19.937 0 0 1 40 20Z"/><g fill="#F4F4FD" clip-path="url(#a)"><path d="M27.984 16.704c-.037-.85-.175-1.435-.372-1.941a3.905 3.905 0 0 0-.925-1.42 3.939 3.939 0 0 0-1.416-.921c-.51-.197-1.09-.335-1.94-.372-.857-.04-1.13-.05-3.301-.05-2.173 0-2.445.01-3.298.047-.85.037-1.434.175-1.94.372a3.903 3.903 0 0 0-1.42.925 3.94 3.94 0 0 0-.922 1.416c-.197.51-.334 1.09-.372 1.94-.04.857-.05 1.13-.05 3.301 0 2.173.01 2.445.047 3.298.037.85.175 1.435.372 1.941.203.538.519 1.019.925 1.419.4.406.885.722 1.416.922.51.197 1.09.335 1.941.372.853.038 1.125.047 3.298.047 2.172 0 2.444-.01 3.297-.047.85-.037 1.435-.175 1.941-.372a4.092 4.092 0 0 0 2.341-2.341c.197-.51.335-1.09.372-1.941.038-.853.047-1.125.047-3.298 0-2.172-.003-2.444-.04-3.297Zm-1.44 6.532c-.035.782-.166 1.204-.276 1.485a2.654 2.654 0 0 1-1.519 1.52c-.281.109-.706.24-1.484.274-.844.038-1.097.047-3.232.047-2.135 0-2.391-.01-3.232-.047-.781-.034-1.203-.165-1.485-.275a2.463 2.463 0 0 1-.919-.597 2.487 2.487 0 0 1-.597-.919c-.11-.281-.24-.706-.275-1.484-.037-.844-.047-1.098-.047-3.232 0-2.135.01-2.391.047-3.232.035-.782.166-1.204.275-1.485.128-.347.332-.662.6-.919.26-.265.572-.469.92-.597.28-.11.706-.24 1.484-.275.844-.037 1.097-.047 3.232-.047 2.138 0 2.39.01 3.232.047.781.035 1.203.166 1.485.275.346.128.662.332.918.597.266.26.47.572.597.92.11.28.241.706.276 1.484.037.844.046 1.097.046 3.232 0 2.134-.009 2.384-.046 3.228Z"/><path d="M20.03 15.891a4.111 4.111 0 0 0 0 8.22 4.111 4.111 0 0 0 0-8.22Zm0 6.777a2.667 2.667 0 1 1 0-5.334 2.667 2.667 0 0 1 0 5.334ZM25.262 15.729a.96.96 0 1 1-1.92 0 .96.96 0 0 1 1.92 0Z"/></g><defs><clipPath id="a"><path fill="#fff" d="M12 12h16v16H12z"/></clipPath></defs></svg>
